!!!COM: Palestrina, Giovanni Perluigi da
!!!OPR: Missa Veni Sancte Spiritus
!!!OTL: Agnus I
**kern	**kern	**kern	**kern	**kern
*Ibass	*Itenor	*Itenor	*Icalto	*Icant
!Bassus	!Tenor 2	!Tenor 1	!Altus	!Cantus
*clefF4	*clefGv2	*clefGv2	*clefG2	*clefG2
*k[b-]	*k[b-]	*k[b-]	*k[b-]	*k[b-]
*G:dor	*G:dor	*G:dor	*G:dor	*G:dor
*M4/2	*M4/2	*M4/2	*M4/2	*M4/2
=1	=1	=1	=1	=1
1r	0d	0r	0r	0r
[1G	.	.	.	.
=2	=2	=2	=2	=2
1G]	1e	0r	0r	0r
1A	[1f	.	.	.
=3	=3	=3	=3	=3
1.B-	2f]	0r	0r	0r
.	2e	.	.	.
.	2d	.	.	.
2A	2c	.	.	.
=4	=4	=4	=4	=4
2G	2B-	0d	0r	0r
2F	2A	.	.	.
2G	4B-	.	.	.
.	4c	.	.	.
2B-	[2d	.	.	.
=5	=5	=5	=5	=5
1A	2d]	1e	0r	0r
.	2c#	.	.	.
2D	1d	[1f	.	.
[2d	.	.	.	.
=6	=6	=6	=6	=6
2d]	1A	2f]	0r	1r
2c	.	2e	.	.
2.B-	2r	2.d	.	[1dd
.	[2d	.	.	.
4A	.	4c	.	.
=7	=7	=7	=7	=7
1G	2d]	4B	0g	1dd]
.	.	4A	.	.
.	1G	2B	.	.
1C	.	1c	.	1ee
.	[2c	.	.	.
=8	=8	=8	=8	=8
1F	4c]	1A	1a	1.ff
.	4A	.	.	.
.	1d	.	.	.
1G	.	1r	[1b-	.
.	4c	.	.	2ee
.	4B-	.	.	.
=9	=9	=9	=9	=9
1F	1f	2r	2b-]	2dd
.	.	2A	2a	2cc
1r	2.d	2.B-	2g	[1dd
.	.	.	2f	.
.	4c	4c	.	.
=10	=10	=10	=10	=10
0G	2B-	2d	1.g	2dd]
.	2c	2.e-	.	2cc
.	1d	.	.	1b-
.	.	4d	.	.
.	.	[2d	2f	.
=11	=11	=11	=11	=11
1A	0r	2d]	1e	1a
.	.	2c#	.	.
[1B-	.	2d	2.d	2r
.	.	4B-	.	[2dd
.	.	4c	4e	.
=12	=12	=12	=12	=12
2B-]	1r	4d	1f	2dd]
.	.	4e	.	.
2A	.	2f	.	2cc
2G	[1d	2g	1r	2b-
2F	.	2a	.	2a
=13	=13	=13	=13	=13
1G	1d]	2d	0g	1b
.	.	4g	.	.
.	.	4f	.	.
1C	1e	4e	.	[1cc
.	.	4d	.	.
.	.	4c	.	.
.	.	4B-	.	.
=14	=14	=14	=14	=14
1F	1.f	1A	1a	1cc]
1G	.	2d	[1b-	1r
.	2e	2e	.	.
=15	=15	=15	=15	=15
1F	2d	1f	2b-]	2r
.	2c	.	2a	2cc
2.BB-	[1d	2r	2g	4b-
.	.	.	.	4cc
.	.	[2B-	[2f	4dd
4C	.	.	.	4ee
=16	=16	=16	=16	=16
4D	2d]	2B-]	4f]	1ff
4E	.	.	4g	.
2F	2c	2A	2a	.
[1G	2.B-	[1d	4b-	1dd
.	.	.	4g	.
.	.	.	[2b-	.
.	4A	.	.	.
=17	=17	=17	=17	=17
1G]	4G	1d]	4b-]	2.b-
.	4A	.	4a	.
.	4B-	.	1g	.
.	4G	.	.	4cc
1D	1A	1d	.	[1dd
.	.	.	2f#	.
=18	=18	=18	=18	=18
2.G	1G	2.B-	1g	1dd]
4F	.	4A	.	.
2E-	1B-	2G	1r	1r
2D	.	2F	.	.
=19	=19	=19	=19	=19
1C	1c	2G	1r	0r
.	.	2A	.	.
1BB-	2d	1B-	1f	.
.	2d	.	.	.
=20	=20	=20	=20	=20
0r	0e-	0r	0g	1b-
.	.	.	.	1cc
=21	=21	=21	=21	=21
0r	1d	1f	2a	2dd
.	.	.	2b-	2dd
.	1c	2g	1cc	1ee-
.	.	[2a	.	.
=22	=22	=22	=22	=22
0r	0d	2a]	2f	0dd
.	.	1g	2b-	.
.	.	.	[1a	.
.	.	[2f	.	.
=23	=23	=23	=23	=23
1F	0r	2f]	1a]	1.cc
.	.	4e	.	.
.	.	4d	.	.
1G	.	2e	1g	.
.	.	[2d	.	2b-
=24	=24	=24	=24	=24
2A	0r	2d]	2f	2.a
2A	.	2c#	2.e	.
.	.	.	.	4g
1B-	.	2d	.	2f
.	.	.	4d	.
.	.	2d	[2d	2g
=25	=25	=25	=25	=25
1A	1r	2e	2d]	1a
.	.	2f#	2c#	.
1G	2r	2.g	1d	1b-
.	2B-	.	.	.
.	.	4f	.	.
=26	=26	=26	=26	=26
2A	1c	2e	1r	1a
2F	.	2.f	.	.
2.B-	[1d	.	1f	1r
.	.	4e-	.	.
.	.	4d	.	.
4A	.	4c	.	.
=27	=27	=27	=27	=27
1G	2d]	1B-	1g	1b-
.	2d	.	.	.
2F	2f	1r	2a	1cc
2A	2e	.	2a	.
=28	=28	=28	=28	=28
2G	2g	1B-	1b-	2dd
2G	2G	.	.	2dd
1F	1A	1c	2.a	2.ff
.	.	.	4g	4ee-
=29	=29	=29	=29	=29
1BB-	2B-	2d	2f	4dd
.	.	.	.	4cc
.	2B-	2d	2.g	4b-
.	.	.	.	4a
2r	1c	1e-	.	2g
.	.	.	4c	.
2C	.	.	2g	[2cc
=30	=30	=30	=30	=30
2D	1F	1d	0f	4cc]
.	.	.	.	4b-
2BB-	.	.	.	1b-
1F	2r	1c	.	.
.	[2f	.	.	2a
=31	=31	=31	=31	=31
1BB-	2f]	1d	2r	1b-
.	2B-	.	2d	.
1r	1d	2r	1f	1a
.	.	[2f	.	.
=32	=32	=32	=32	=32
0r	1c	2f]	1g	1cc
.	.	2e-	.	.
.	1r	2d	2f	1dd
.	.	2B-	[2b-	.
=33	=33	=33	=33	=33
0r	1r	1f	2b-]	2cc
.	.	.	4a	1ff
.	.	.	4g	.
.	1A	1c	1a	.
.	.	.	.	4ee
.	.	.	.	4dd
=34	=34	=34	=34	=34
1r	1c	0r	1g	4ee
.	.	.	.	4dd
.	.	.	.	4cc
.	.	.	.	4b-
1D	1d	.	1f	2a
.	.	.	.	[2b-
=35	=35	=35	=35	=35
1F	2c	0r	1f	4b-]
.	.	.	.	4a
.	1f	.	.	2a
1G	.	.	2d	2b-
.	2e	.	2e	2g
=36	=36	=36	=36	=36
0F	2d	2r	1f	0a
.	4c	2A	.	.
.	4B-	.	.	.
.	4A	1c	1f	.
.	4G	.	.	.
.	2A	.	.	.
=37	=37	=37	=37	=37
1.B-	2G	1d	2r	0r
.	2B-	.	2d	.
.	1F	2c	1f	.
2A	.	2f	.	.
=38	=38	=38	=38	=38
2.G	2.B-	4e	0g	0r
.	.	4d	.	.
.	.	1d	.	.
4F	4A	.	.	.
1E	1G	.	.	.
.	.	2c#	.	.
=39	=39	=39	=39	=39
1D	2A	2d	2.f	1a
.	1a	1f	.	.
.	.	.	4g	.
1r	.	.	4a	1cc
.	.	.	4b-	.
.	2g	2e	2cc	.
=40	=40	=40	=40	=40
0r	2.f	2.d	2b-	[0dd
.	.	.	1a	.
.	4e	4c	.	.
.	1d	1B-	.	.
.	.	.	2g	.
=41	=41	=41	=41	=41
1D	1d	[0A	2.f	1dd]
.	.	.	4g	.
2F	2r	.	1a	1cc
[2F	2A	.	.	.
=42	=42	=42	=42	=42
2F]	2c	1A]	2r	1ff
2D	1d	.	1a	.
2.A	.	2r	.	1ee
.	2c	2A	2a	.
4G	.	.	.	.
=43	=43	=43	=43	=43
2F	1f	2c	1a	2r
2D	.	1d	.	2dd
1A	2e	.	2.a	1ee
.	[2a	2c#	.	.
.	.	.	4g	.
=44	=44	=44	=44	=44
1.D	2a]	2.d	4f	1ff
.	.	.	4e	.
.	2f	.	4d	.
.	.	8c	4e	.
.	.	8B-	.	.
.	2d	[1A	4f	2ff
.	.	.	4g	.
2C#	2e	.	2a	[2ee
=45	=45	=45	=45	=45
2D	1f	0A]	0a	4ee]
.	.	.	.	4dd
2D	.	.	.	1dd
1A	1e	.	.	.
.	.	.	.	2cc#
=46	=46	=46	=46	=46
[0D	[0d	[0A	[0f#	[0dd
=47	=47	=47	=47	=47
0D]	0d]	0A]	0f#]	0dd]
==	==	==	==	==
*-	*-	*-	*-	*-
!!!CDT: 1525/^1526/-1594/2/2
!!!OCY: Italia
!!!AGN: Mass (Parody)
!!!AST: renaissance, vocal
!!!ASW: Motet (unidentified (Pal?))
!!!PWK: Masses, Book 4
!!!RNB: Cadence finals: D
!!!YOR: Le Opere Complete, v. 10, p. 115
!!!YOO: Rome, Italy: Fratelli Scalera
!!!END: 1992//
!!!EED: John Miller
!!!YEC: Copyright 2000, John Miller
!!!YEN: United States of America
!!!YEM: Rights to all derivative electronic formats reserved.
!!!YEM: Refer to licensing agreement for further details.
!!!YEM: This file must be accompanied by the licensing agreement.
!!!YEM: A copy of the licensing agreement may be found at http://www.music-cog.ohio-state.edu/HumdrumDatabases/Palestrina/license.txt
!!!EMD: converted to Humdrum by Bret Aarden
